images/3234163.svg

<?xml version="1.0" encoding="UTF-8"?>
<svg xmlns="http://www.w3.org/2000/svg" xmlns:xlink="http://www.w3.org/1999/xlink" width="300pt" height="300pt" viewBox="0 0 300 300" version="1.1">
<defs>
<g>
<symbol overflow="visible" id="glyph0-0">
<path style="stroke:none;" d="M 0.75 2.65625 L 0.75 -10.578125 L 8.25 -10.578125 L 8.25 2.65625 Z M 1.59375 1.8125 L 7.40625 1.8125 L 7.40625 -9.734375 L 1.59375 -9.734375 Z M 1.59375 1.8125 "/>
</symbol>
<symbol overflow="visible" id="glyph0-1">
<path style="stroke:none;" d="M 5.90625 -9.9375 C 4.832031 -9.9375 3.976562 -9.535156 3.34375 -8.734375 C 2.71875 -7.929688 2.40625 -6.835938 2.40625 -5.453125 C 2.40625 -4.078125 2.71875 -2.988281 3.34375 -2.1875 C 3.976562 -1.382812 4.832031 -0.984375 5.90625 -0.984375 C 6.976562 -0.984375 7.828125 -1.382812 8.453125 -2.1875 C 9.085938 -2.988281 9.40625 -4.078125 9.40625 -5.453125 C 9.40625 -6.835938 9.085938 -7.929688 8.453125 -8.734375 C 7.828125 -9.535156 6.976562 -9.9375 5.90625 -9.9375 Z M 5.90625 -11.140625 C 7.4375 -11.140625 8.660156 -10.625 9.578125 -9.59375 C 10.503906 -8.5625 10.96875 -7.179688 10.96875 -5.453125 C 10.96875 -3.734375 10.503906 -2.359375 9.578125 -1.328125 C 8.660156 -0.296875 7.4375 0.21875 5.90625 0.21875 C 4.375 0.21875 3.144531 -0.289062 2.21875 -1.3125 C 1.300781 -2.34375 0.84375 -3.722656 0.84375 -5.453125 C 0.84375 -7.179688 1.300781 -8.5625 2.21875 -9.59375 C 3.144531 -10.625 4.375 -11.140625 5.90625 -11.140625 Z M 5.90625 -11.140625 "/>
</symbol>
<symbol overflow="visible" id="glyph0-2">
<path style="stroke:none;" d="M 1.46875 -10.9375 L 3.46875 -10.9375 L 8.3125 -1.78125 L 8.3125 -10.9375 L 9.75 -10.9375 L 9.75 0 L 7.75 0 L 2.90625 -9.140625 L 2.90625 0 L 1.46875 0 Z M 1.46875 -10.9375 "/>
</symbol>
<symbol overflow="visible" id="glyph0-3">
<path style="stroke:none;" d="M 1.46875 -10.9375 L 7.75 -10.9375 L 7.75 -9.6875 L 2.953125 -9.6875 L 2.953125 -6.46875 L 7.28125 -6.46875 L 7.28125 -5.21875 L 2.953125 -5.21875 L 2.953125 0 L 1.46875 0 Z M 1.46875 -10.9375 "/>
</symbol>
</g>
</defs>
<g id="surface31069">
<rect x="0" y="0" width="300" height="300" style="fill:rgb(100%,100%,100%);fill-opacity:1;stroke:none;"/>
<path style="fill:none;stroke-width:1.2;stroke-linecap:butt;stroke-linejoin:miter;stroke:rgb(0%,0%,0%);stroke-opacity:1;stroke-miterlimit:10;" d="M 252.558594 260.722656 L 256.398438 243.378906 "/>
<path style="fill:none;stroke-width:1.2;stroke-linecap:butt;stroke-linejoin:miter;stroke:rgb(100%,0%,0%);stroke-opacity:1;stroke-miterlimit:10;" d="M 256.398438 243.378906 L 260.238281 226.03125 "/>
<path style="fill:none;stroke-width:1.2;stroke-linecap:butt;stroke-linejoin:miter;stroke:rgb(100%,0%,0%);stroke-opacity:1;stroke-miterlimit:10;" d="M 260.238281 226.03125 L 247.136719 214.035156 "/>
<path style="fill:none;stroke-width:1.2;stroke-linecap:butt;stroke-linejoin:miter;stroke:rgb(0%,0%,0%);stroke-opacity:1;stroke-miterlimit:10;" d="M 247.136719 214.035156 L 234.035156 202.035156 "/>
<path style=" stroke:none;fill-rule:nonzero;fill:rgb(100%,100%,100%);fill-opacity:1;" d="M 254.238281 217.03125 L 266.238281 217.03125 L 266.238281 235.03125 L 254.238281 235.03125 Z M 254.238281 217.03125 "/>
<g style="fill:rgb(100%,0%,0%);fill-opacity:1;">
  <use xlink:href="#glyph0-1" x="254.238281" y="230.645508"/>
</g>
<path style="fill:none;stroke-width:1.2;stroke-linecap:butt;stroke-linejoin:miter;stroke:rgb(0%,0%,0%);stroke-opacity:1;stroke-miterlimit:10;" d="M 234.035156 202.035156 L 241.710938 167.34375 "/>
<path style="fill:none;stroke-width:1.2;stroke-linecap:butt;stroke-linejoin:miter;stroke:rgb(0%,0%,0%);stroke-opacity:1;stroke-miterlimit:10;" d="M 241.710938 167.34375 L 228.609375 155.347656 "/>
<path style="fill:none;stroke-width:1.2;stroke-linecap:butt;stroke-linejoin:miter;stroke:rgb(0%,0%,100%);stroke-opacity:1;stroke-miterlimit:10;" d="M 228.609375 155.347656 L 215.507812 143.351562 "/>
<path style="fill:none;stroke-width:1.2;stroke-linecap:butt;stroke-linejoin:miter;stroke:rgb(0%,0%,100%);stroke-opacity:1;stroke-miterlimit:10;" d="M 215.507812 143.351562 L 219.347656 126.003906 "/>
<path style="fill:none;stroke-width:1.2;stroke-linecap:butt;stroke-linejoin:miter;stroke:rgb(0%,0%,0%);stroke-opacity:1;stroke-miterlimit:10;" d="M 219.347656 126.003906 L 223.1875 108.660156 "/>
<path style="fill:none;stroke-width:1.2;stroke-linecap:butt;stroke-linejoin:miter;stroke:rgb(0%,0%,0%);stroke-opacity:1;stroke-miterlimit:10;" d="M 181.625 154.042969 L 198.566406 148.695312 "/>
<path style="fill:none;stroke-width:1.2;stroke-linecap:butt;stroke-linejoin:miter;stroke:rgb(0%,0%,100%);stroke-opacity:1;stroke-miterlimit:10;" d="M 198.566406 148.695312 L 215.507812 143.351562 "/>
<path style=" stroke:none;fill-rule:nonzero;fill:rgb(100%,100%,100%);fill-opacity:1;" d="M 210.507812 134.351562 L 221.507812 134.351562 L 221.507812 152.351562 L 210.507812 152.351562 Z M 210.507812 134.351562 "/>
<g style="fill:rgb(0%,0%,100%);fill-opacity:1;">
  <use xlink:href="#glyph0-2" x="210.507812" y="147.96582"/>
</g>
<path style="fill:none;stroke-width:1.2;stroke-linecap:butt;stroke-linejoin:miter;stroke:rgb(0%,0%,0%);stroke-opacity:1;stroke-miterlimit:10;" d="M 223.1875 108.660156 L 240.128906 103.3125 "/>
<path style="fill:none;stroke-width:1.2;stroke-linecap:butt;stroke-linejoin:miter;stroke:rgb(0%,0%,100%);stroke-opacity:1;stroke-miterlimit:10;" d="M 240.128906 103.3125 L 257.070312 97.964844 "/>
<path style="fill:none;stroke-width:1.2;stroke-linecap:butt;stroke-linejoin:miter;stroke:rgb(0%,0%,0%);stroke-opacity:1;stroke-miterlimit:10;" d="M 224.058594 99.617188 L 237.613281 95.339844 "/>
<path style="fill:none;stroke-width:1.2;stroke-linecap:butt;stroke-linejoin:miter;stroke:rgb(0%,0%,100%);stroke-opacity:1;stroke-miterlimit:10;" d="M 237.613281 95.339844 L 251.167969 91.0625 "/>
<path style="fill:none;stroke-width:1.2;stroke-linecap:butt;stroke-linejoin:miter;stroke:rgb(0%,0%,0%);stroke-opacity:1;stroke-miterlimit:10;" d="M 196.984375 84.664062 L 223.1875 108.660156 "/>
<path style="fill:none;stroke-width:1.2;stroke-linecap:butt;stroke-linejoin:miter;stroke:rgb(0%,0%,100%);stroke-opacity:1;stroke-miterlimit:10;" d="M 257.070312 97.964844 L 260.910156 80.617188 "/>
<path style="fill:none;stroke-width:1.2;stroke-linecap:butt;stroke-linejoin:miter;stroke:rgb(0%,0%,0%);stroke-opacity:1;stroke-miterlimit:10;" d="M 260.910156 80.617188 L 264.75 63.273438 "/>
<path style=" stroke:none;fill-rule:nonzero;fill:rgb(100%,100%,100%);fill-opacity:1;" d="M 252.070312 88.964844 L 263.070312 88.964844 L 263.070312 106.964844 L 252.070312 106.964844 Z M 252.070312 88.964844 "/>
<g style="fill:rgb(0%,0%,100%);fill-opacity:1;">
  <use xlink:href="#glyph0-2" x="252.070312" y="102.579102"/>
</g>
<path style="fill:none;stroke-width:1.2;stroke-linecap:butt;stroke-linejoin:miter;stroke:rgb(0%,0%,0%);stroke-opacity:1;stroke-miterlimit:10;" d="M 264.75 63.273438 L 251.648438 51.273438 "/>
<path style="fill:none;stroke-width:1.2;stroke-linecap:butt;stroke-linejoin:miter;stroke:rgb(0%,0%,100%);stroke-opacity:1;stroke-miterlimit:10;" d="M 251.648438 51.273438 L 238.546875 39.277344 "/>
<path style="fill:none;stroke-width:1.2;stroke-linecap:butt;stroke-linejoin:miter;stroke:rgb(0%,0%,0%);stroke-opacity:1;stroke-miterlimit:10;" d="M 256.484375 67.039062 L 246.003906 57.441406 "/>
<path style="fill:none;stroke-width:1.2;stroke-linecap:butt;stroke-linejoin:miter;stroke:rgb(0%,0%,100%);stroke-opacity:1;stroke-miterlimit:10;" d="M 246.003906 57.441406 L 235.519531 47.84375 "/>
<path style="fill:none;stroke-width:1.2;stroke-linecap:butt;stroke-linejoin:miter;stroke:rgb(0%,0%,100%);stroke-opacity:1;stroke-miterlimit:10;" d="M 238.546875 39.277344 L 221.605469 44.625 "/>
<path style="fill:none;stroke-width:1.2;stroke-linecap:butt;stroke-linejoin:miter;stroke:rgb(0%,0%,0%);stroke-opacity:1;stroke-miterlimit:10;" d="M 221.605469 44.625 L 204.664062 49.972656 "/>
<path style=" stroke:none;fill-rule:nonzero;fill:rgb(100%,100%,100%);fill-opacity:1;" d="M 233.546875 30.277344 L 244.546875 30.277344 L 244.546875 48.277344 L 233.546875 48.277344 Z M 233.546875 30.277344 "/>
<g style="fill:rgb(0%,0%,100%);fill-opacity:1;">
  <use xlink:href="#glyph0-2" x="233.546875" y="43.891602"/>
</g>
<path style="fill:none;stroke-width:1.2;stroke-linecap:butt;stroke-linejoin:miter;stroke:rgb(0%,0%,0%);stroke-opacity:1;stroke-miterlimit:10;" d="M 204.664062 49.972656 L 196.984375 84.664062 "/>
<path style="fill:none;stroke-width:1.2;stroke-linecap:butt;stroke-linejoin:miter;stroke:rgb(0%,0%,0%);stroke-opacity:1;stroke-miterlimit:10;" d="M 212.058594 55.25 L 205.914062 83 "/>
<path style="fill:none;stroke-width:1.2;stroke-linecap:butt;stroke-linejoin:miter;stroke:rgb(0%,0%,0%);stroke-opacity:1;stroke-miterlimit:10;" d="M 196.984375 84.664062 L 180.042969 90.011719 "/>
<path style="fill:none;stroke-width:1.2;stroke-linecap:butt;stroke-linejoin:miter;stroke:rgb(0%,0%,100%);stroke-opacity:1;stroke-miterlimit:10;" d="M 180.042969 90.011719 L 163.101562 95.359375 "/>
<path style="fill:none;stroke-width:1.2;stroke-linecap:butt;stroke-linejoin:miter;stroke:rgb(0%,0%,100%);stroke-opacity:1;stroke-miterlimit:10;" d="M 163.101562 95.359375 L 159.261719 112.703125 "/>
<path style="fill:none;stroke-width:1.2;stroke-linecap:butt;stroke-linejoin:miter;stroke:rgb(0%,0%,0%);stroke-opacity:1;stroke-miterlimit:10;" d="M 159.261719 112.703125 L 155.421875 130.050781 "/>
<path style="fill:none;stroke-width:1.2;stroke-linecap:butt;stroke-linejoin:miter;stroke:rgb(0%,0%,100%);stroke-opacity:1;stroke-miterlimit:10;" d="M 170.496094 100.632812 L 167.425781 114.511719 "/>
<path style="fill:none;stroke-width:1.2;stroke-linecap:butt;stroke-linejoin:miter;stroke:rgb(0%,0%,0%);stroke-opacity:1;stroke-miterlimit:10;" d="M 167.425781 114.511719 L 164.351562 128.386719 "/>
<path style=" stroke:none;fill-rule:nonzero;fill:rgb(100%,100%,100%);fill-opacity:1;" d="M 158.101562 86.359375 L 169.101562 86.359375 L 169.101562 104.359375 L 158.101562 104.359375 Z M 158.101562 86.359375 "/>
<g style="fill:rgb(0%,0%,100%);fill-opacity:1;">
  <use xlink:href="#glyph0-2" x="158.101562" y="99.973633"/>
</g>
<path style="fill:none;stroke-width:1.2;stroke-linecap:butt;stroke-linejoin:miter;stroke:rgb(0%,0%,0%);stroke-opacity:1;stroke-miterlimit:10;" d="M 155.421875 130.050781 L 181.625 154.042969 "/>
<path style="fill:none;stroke-width:1.2;stroke-linecap:butt;stroke-linejoin:miter;stroke:rgb(0%,0%,0%);stroke-opacity:1;stroke-miterlimit:10;" d="M 155.421875 130.050781 L 121.539062 140.742188 "/>
<path style="fill:none;stroke-width:1.2;stroke-linecap:butt;stroke-linejoin:miter;stroke:rgb(0%,0%,0%);stroke-opacity:1;stroke-miterlimit:10;" d="M 177.542969 153.140625 L 173.707031 170.488281 "/>
<path style="fill:none;stroke-width:1.2;stroke-linecap:butt;stroke-linejoin:miter;stroke:rgb(100%,0%,0%);stroke-opacity:1;stroke-miterlimit:10;" d="M 173.707031 170.488281 L 169.867188 187.832031 "/>
<path style="fill:none;stroke-width:1.2;stroke-linecap:butt;stroke-linejoin:miter;stroke:rgb(0%,0%,0%);stroke-opacity:1;stroke-miterlimit:10;" d="M 185.707031 154.949219 L 181.867188 172.292969 "/>
<path style="fill:none;stroke-width:1.2;stroke-linecap:butt;stroke-linejoin:miter;stroke:rgb(100%,0%,0%);stroke-opacity:1;stroke-miterlimit:10;" d="M 181.867188 172.292969 L 178.027344 189.640625 "/>
<path style=" stroke:none;fill-rule:nonzero;fill:rgb(100%,100%,100%);fill-opacity:1;" d="M 167.945312 179.734375 L 179.945312 179.734375 L 179.945312 197.734375 L 167.945312 197.734375 Z M 167.945312 179.734375 "/>
<g style="fill:rgb(100%,0%,0%);fill-opacity:1;">
  <use xlink:href="#glyph0-1" x="167.945312" y="193.348633"/>
</g>
<path style="fill:none;stroke-width:1.2;stroke-linecap:butt;stroke-linejoin:miter;stroke:rgb(0%,0%,0%);stroke-opacity:1;stroke-miterlimit:10;" d="M 121.539062 140.742188 L 95.335938 116.75 "/>
<path style="fill:none;stroke-width:1.2;stroke-linecap:butt;stroke-linejoin:miter;stroke:rgb(0%,0%,0%);stroke-opacity:1;stroke-miterlimit:10;" d="M 113.273438 144.511719 L 92.3125 125.3125 "/>
<path style="fill:none;stroke-width:1.2;stroke-linecap:butt;stroke-linejoin:miter;stroke:rgb(0%,0%,0%);stroke-opacity:1;stroke-miterlimit:10;" d="M 113.859375 175.433594 L 121.539062 140.742188 "/>
<path style="fill:none;stroke-width:1.2;stroke-linecap:butt;stroke-linejoin:miter;stroke:rgb(0%,0%,0%);stroke-opacity:1;stroke-miterlimit:10;" d="M 95.335938 116.75 L 61.453125 127.441406 "/>
<path style="fill:none;stroke-width:1.2;stroke-linecap:butt;stroke-linejoin:miter;stroke:rgb(0%,0%,0%);stroke-opacity:1;stroke-miterlimit:10;" d="M 61.453125 127.441406 L 53.773438 162.132812 "/>
<path style="fill:none;stroke-width:1.2;stroke-linecap:butt;stroke-linejoin:miter;stroke:rgb(0%,0%,0%);stroke-opacity:1;stroke-miterlimit:10;" d="M 68.847656 132.71875 L 62.703125 160.472656 "/>
<path style="fill:none;stroke-width:1.2;stroke-linecap:butt;stroke-linejoin:miter;stroke:rgb(0%,0%,0%);stroke-opacity:1;stroke-miterlimit:10;" d="M 61.453125 127.441406 L 48.351562 115.445312 "/>
<path style="fill:none;stroke-width:1.2;stroke-linecap:butt;stroke-linejoin:miter;stroke:rgb(20%,80%,80%);stroke-opacity:1;stroke-miterlimit:10;" d="M 48.351562 115.445312 L 35.25 103.449219 "/>
<path style="fill:none;stroke-width:1.2;stroke-linecap:butt;stroke-linejoin:miter;stroke:rgb(0%,0%,0%);stroke-opacity:1;stroke-miterlimit:10;" d="M 53.773438 162.132812 L 79.976562 186.128906 "/>
<path style="fill:none;stroke-width:1.2;stroke-linecap:butt;stroke-linejoin:miter;stroke:rgb(0%,0%,0%);stroke-opacity:1;stroke-miterlimit:10;" d="M 79.976562 186.128906 L 113.859375 175.433594 "/>
<path style="fill:none;stroke-width:1.2;stroke-linecap:butt;stroke-linejoin:miter;stroke:rgb(0%,0%,0%);stroke-opacity:1;stroke-miterlimit:10;" d="M 80.851562 177.089844 L 107.957031 168.53125 "/>
<path style=" stroke:none;fill-rule:nonzero;fill:rgb(100%,100%,100%);fill-opacity:1;" d="M 26.25 94.449219 L 35.25 94.449219 L 35.25 112.449219 L 26.25 112.449219 Z M 26.25 94.449219 "/>
<g style="fill:rgb(20%,80%,80%);fill-opacity:1;">
  <use xlink:href="#glyph0-3" x="26.25" y="108.063477"/>
</g>
</g>
</svg>

<svg xmlns="http://www.w3.org/2000/svg" xmlns:xlink="http://www.w3.org/1999/xlink" width="300pt" height="300pt" viewBox="0 0 300 300"><defs><symbol overflow="visible"><path d="M.75 2.656v-13.234h7.5V2.656zm.844-.844h5.812V-9.733H1.594zm0 0"/></symbol><symbol overflow="visible" id="a"><path d="M5.906-9.938c-1.074 0-1.93.403-2.562 1.204-.625.804-.938 1.898-.938 3.28 0 1.376.313 2.466.938 3.266.633.805 1.488 1.204 2.562 1.204 1.07 0 1.922-.4 2.547-1.204.633-.8.953-1.89.953-3.265 0-1.383-.32-2.477-.953-3.28-.625-.802-1.476-1.204-2.547-1.204zm0-1.203c1.532 0 2.754.515 3.672 1.546.926 1.03 1.39 2.414 1.39 4.14 0 1.72-.464 3.095-1.39 4.126C8.66-.298 7.438.22 5.906.22c-1.53 0-2.76-.51-3.687-1.532C1.3-2.345.843-3.723.843-5.452c0-1.728.457-3.11 1.375-4.142.925-1.03 2.155-1.547 3.686-1.547zm0 0"/></symbol><symbol overflow="visible" id="b"><path d="M1.47-10.938h2L8.31-1.78v-9.158H9.75V0h-2L2.906-9.14V0H1.47zm0 0"/></symbol><symbol overflow="visible" id="c"><path d="M1.47-10.938h6.28v1.25H2.953v3.22H7.28v1.25H2.954V0H1.47zm0 0"/></symbol></defs><g><path fill="#fff" d="M0 0h300v300H0z"/><path d="M252.56 260.723l3.838-17.344" stroke-width="1.2" stroke="#000" stroke-miterlimit="10" fill="none"/><path d="M256.398 243.38l3.84-17.35M260.238 226.03l-13.1-11.995" stroke-width="1.2" stroke="#f00" stroke-miterlimit="10" fill="none"/><path d="M247.137 214.035l-13.102-12" stroke-width="1.2" stroke="#000" stroke-miterlimit="10" fill="none"/><path d="M254.238 217.03h12v18h-12zm0 0" fill="#fff"/><use xlink:href="#a" x="254.238" y="230.646" fill="#f00"/><path d="M234.035 202.035l7.676-34.69M241.71 167.344l-13.1-11.996" stroke-width="1.2" stroke="#000" stroke-miterlimit="10" fill="none"/><path d="M228.61 155.348l-13.102-11.996M215.508 143.352l3.84-17.348" stroke-width="1.2" stroke="#00f" stroke-miterlimit="10" fill="none"/><path d="M219.348 126.004l3.84-17.344M181.625 154.043l16.94-5.348" stroke-width="1.2" stroke="#000" stroke-miterlimit="10" fill="none"/><path d="M198.566 148.695l16.942-5.343" stroke-width="1.2" stroke="#00f" stroke-miterlimit="10" fill="none"/><path d="M210.508 134.352h11v18h-11zm0 0" fill="#fff"/><use xlink:href="#b" x="210.508" y="147.966" fill="#00f"/><path d="M223.188 108.66l16.94-5.347" stroke-width="1.2" stroke="#000" stroke-miterlimit="10" fill="none"/><path d="M240.13 103.313l16.94-5.348" stroke-width="1.2" stroke="#00f" stroke-miterlimit="10" fill="none"/><path d="M224.06 99.617l13.553-4.277" stroke-width="1.2" stroke="#000" stroke-miterlimit="10" fill="none"/><path d="M237.613 95.34l13.555-4.278" stroke-width="1.2" stroke="#00f" stroke-miterlimit="10" fill="none"/><path d="M196.984 84.664l26.203 23.996" stroke-width="1.2" stroke="#000" stroke-miterlimit="10" fill="none"/><path d="M257.07 97.965l3.84-17.348" stroke-width="1.2" stroke="#00f" stroke-miterlimit="10" fill="none"/><path d="M260.91 80.617l3.84-17.344" stroke-width="1.2" stroke="#000" stroke-miterlimit="10" fill="none"/><path d="M252.07 88.965h11v18h-11zm0 0" fill="#fff"/><use xlink:href="#b" x="252.07" y="102.579" fill="#00f"/><path d="M264.75 63.273l-13.102-12" stroke-width="1.2" stroke="#000" stroke-miterlimit="10" fill="none"/><path d="M251.648 51.273l-13.1-11.996" stroke-width="1.2" stroke="#00f" stroke-miterlimit="10" fill="none"/><path d="M256.484 67.04l-10.48-9.6" stroke-width="1.2" stroke="#000" stroke-miterlimit="10" fill="none"/><path d="M246.004 57.44l-10.484-9.596M238.547 39.277l-16.942 5.348" stroke-width="1.2" stroke="#00f" stroke-miterlimit="10" fill="none"/><path d="M221.605 44.625l-16.94 5.348" stroke-width="1.2" stroke="#000" stroke-miterlimit="10" fill="none"/><path d="M233.547 30.277h11v18h-11zm0 0" fill="#fff"/><use xlink:href="#b" x="233.547" y="43.892" fill="#00f"/><path d="M204.664 49.973l-7.68 34.69M212.06 55.25L205.913 83M196.984 84.664l-16.94 5.348" stroke-width="1.2" stroke="#000" stroke-miterlimit="10" fill="none"/><path d="M180.043 90.012l-16.94 5.347M163.102 95.36l-3.84 17.343" stroke-width="1.2" stroke="#00f" stroke-miterlimit="10" fill="none"/><path d="M159.262 112.703l-3.84 17.348" stroke-width="1.2" stroke="#000" stroke-miterlimit="10" fill="none"/><path d="M170.496 100.633l-3.07 13.88" stroke-width="1.2" stroke="#00f" stroke-miterlimit="10" fill="none"/><path d="M167.426 114.512l-3.074 13.875" stroke-width="1.2" stroke="#000" stroke-miterlimit="10" fill="none"/><path d="M158.102 86.36h11v18h-11zm0 0" fill="#fff"/><use xlink:href="#b" x="158.102" y="99.974" fill="#00f"/><path d="M155.422 130.05l26.203 23.993M155.422 130.05l-33.883 10.692M177.543 153.14l-3.836 17.348" stroke-width="1.2" stroke="#000" stroke-miterlimit="10" fill="none"/><path d="M173.707 170.488l-3.84 17.344" stroke-width="1.2" stroke="#f00" stroke-miterlimit="10" fill="none"/><path d="M185.707 154.95l-3.84 17.343" stroke-width="1.2" stroke="#000" stroke-miterlimit="10" fill="none"/><path d="M181.867 172.293l-3.84 17.348" stroke-width="1.2" stroke="#f00" stroke-miterlimit="10" fill="none"/><path d="M167.945 179.734h12v18h-12zm0 0" fill="#fff"/><use xlink:href="#a" x="167.945" y="193.349" fill="#f00"/><path d="M121.54 140.742L95.335 116.75M113.273 144.512l-20.96-19.2M113.86 175.434l7.68-34.692M95.336 116.75l-33.883 10.69M61.453 127.44l-7.68 34.693M68.848 132.72l-6.145 27.753M61.453 127.44l-13.1-11.995" stroke-width="1.2" stroke="#000" stroke-miterlimit="10" fill="none"/><path d="M48.352 115.445L35.25 103.45" stroke-width="1.2" stroke="#3cc" stroke-miterlimit="10" fill="none"/><path d="M53.773 162.133l26.204 23.996M79.977 186.13l33.882-10.696M80.852 177.09l27.105-8.56" stroke-width="1.2" stroke="#000" stroke-miterlimit="10" fill="none"/><path d="M26.25 94.45h9v18h-9zm0 0" fill="#fff"/><use xlink:href="#c" x="26.25" y="108.063" fill="#3cc"/></g></svg>
